public/favicon/favicon.svg

<svg xmlns="http://www.w3.org/2000/svg" version="1.1" xmlns:xlink="http://www.w3.org/1999/xlink" width="400" height="400"><svg id="SvgjsSvg1005" xmlns="http://www.w3.org/2000/svg" xmlns:xlink="http://www.w3.org/1999/xlink" width="400" height="400" viewBox="0, 0, 400,400"><g id="SvgjsG1004"><path id="SvgjsPath1003" d="M240.171 23.463 C 214.283 26.833,191.292 53.200,188.645 82.554 L 188.286 86.538 184.056 88.865 C 181.730 90.145,178.228 92.648,176.275 94.428 L 172.724 97.664 170.024 95.077 C 143.249 69.423,99.208 95.532,109.187 131.143 C 109.803 133.343,110.367 135.496,110.440 135.928 C 110.526 136.445,109.332 137.058,106.949 137.719 C 71.422 147.573,69.449 196.366,104.084 208.580 C 106.709 209.506,109.307 210.268,109.857 210.274 C 111.132 210.289,111.116 210.553,109.600 214.625 C 107.702 219.725,107.732 232.956,109.655 238.286 C 113.950 250.188,122.125 257.981,134.571 262.037 C 139.125 263.521,139.040 263.272,137.116 269.429 C 135.473 274.688,135.326 283.857,136.804 288.857 C 144.949 316.401,177.583 324.942,198.629 305.038 L 201.696 302.137 205.322 305.497 C 223.833 322.647,252.649 318.366,264.494 296.706 L 266.571 292.908 270.286 292.162 C 295.333 287.130,311.769 263.012,306.612 238.857 L 305.819 235.143 307.984 233.143 C 325.072 217.360,325.873 184.763,309.567 168.689 L 305.918 165.092 306.662 161.546 C 311.850 136.788,291.281 108.190,268.154 108.010 C 267.234 108.003,266.538 107.325,265.648 105.571 C 254.908 84.412,225.593 77.905,208.195 92.820 C 205.119 95.457,205.142 95.469,205.145 91.286 C 205.160 68.397,220.276 45.333,237.600 41.766 C 247.507 39.727,256.917 42.091,274.903 51.141 C 361.497 94.708,393.760 203.170,344.447 284.930 L 341.646 289.574 338.928 286.644 C 337.434 285.033,333.975 281.092,331.243 277.888 C 325.103 270.685,325.448 270.866,324.664 274.448 C 323.130 281.468,313.714 334.459,313.714 336.076 C 313.714 336.854,315.250 336.515,323.000 334.022 C 328.107 332.379,336.143 329.808,340.857 328.308 C 368.055 319.655,376.000 316.999,376.000 316.558 C 376.000 316.288,373.422 314.316,370.270 312.176 C 360.453 305.510,356.000 302.231,356.000 301.667 C 356.000 301.368,357.971 297.733,360.380 293.588 C 400.380 224.777,391.244 136.042,338.109 77.264 C 319.946 57.172,299.779 42.385,275.862 31.621 C 258.896 23.985,250.646 22.100,240.171 23.463 M100.857 51.250 C 100.229 51.394,86.343 54.458,70.000 58.059 C 53.657 61.660,39.939 64.729,39.515 64.878 C 39.061 65.039,42.339 68.106,47.515 72.364 C 52.339 76.332,56.755 80.021,57.329 80.563 C 58.495 81.663,59.295 80.311,49.337 94.064 C 7.829 151.382,4.210 232.647,40.459 293.429 C 63.634 332.288,106.496 366.390,145.267 376.817 C 157.876 380.208,161.992 381.232,165.996 381.974 C 180.598 384.680,201.259 386.002,204.294 384.424 C 210.597 381.146,210.957 372.783,204.984 368.358 C 203.569 367.309,202.240 367.139,192.699 366.789 C 89.142 362.981,13.234 262.672,37.717 161.989 C 43.150 139.648,52.684 119.370,66.393 101.000 C 71.636 93.973,71.793 93.908,74.701 97.578 C 75.887 99.074,78.914 102.712,81.429 105.662 C 83.943 108.612,86.553 111.690,87.228 112.503 L 88.456 113.980 89.017 111.705 C 89.820 108.447,93.460 93.201,94.882 87.143 C 95.545 84.314,97.740 75.335,99.758 67.188 C 104.212 49.213,104.123 50.505,100.857 51.250 M200.000 101.134 C 200.000 101.444,199.231 102.946,198.292 104.473 C 194.421 110.764,193.554 115.199,193.664 128.153 C 193.768 140.450,193.685 140.643,189.518 137.776 C 177.862 129.756,178.085 112.467,189.949 104.296 C 193.634 101.758,200.000 99.755,200.000 101.134 M237.021 101.389 C 256.575 106.594,258.377 134.111,239.712 142.491 C 230.684 146.544,231.926 157.879,241.409 157.971 C 252.375 158.077,266.547 142.961,268.633 128.933 C 269.404 123.751,269.641 123.660,275.298 126.360 C 288.546 132.683,294.690 148.593,289.392 162.857 C 286.707 170.086,286.977 171.698,291.429 175.015 C 306.025 185.890,309.833 202.864,300.832 216.935 C 298.356 220.806,297.850 220.781,292.571 216.526 C 279.577 206.052,264.748 204.128,262.214 212.586 C 260.610 217.939,263.546 221.405,271.331 223.350 C 295.567 229.406,298.623 262.435,275.973 273.519 C 270.082 276.401,269.262 276.441,268.868 273.861 C 266.350 257.414,256.438 245.317,242.699 241.927 C 230.534 238.925,227.509 252.365,239.146 257.716 C 248.927 262.213,252.867 268.048,252.844 278.000 C 252.787 301.514,222.235 308.145,211.838 286.899 L 210.000 283.143 209.841 246.339 C 209.699 213.631,209.785 209.225,210.609 206.743 C 216.028 190.429,231.474 185.921,246.553 196.250 C 256.866 203.316,265.849 191.825,256.384 183.674 C 244.302 173.269,226.018 171.638,213.011 179.805 C 211.839 180.541,210.608 181.143,210.275 181.143 C 209.854 181.143,209.720 171.348,209.835 149.000 L 210.000 116.857 211.565 113.673 C 216.277 104.086,227.253 98.789,237.021 101.389 M152.615 102.717 C 170.048 111.306,166.680 137.681,147.714 141.090 C 126.203 144.957,115.041 115.425,133.647 103.871 C 138.695 100.736,147.505 100.200,152.615 102.717 M123.649 154.815 C 136.520 160.737,139.787 177.979,129.899 187.801 C 117.936 199.683,97.388 192.390,95.645 175.642 C 94.072 160.531,110.125 148.592,123.649 154.815 M181.171 155.202 C 188.536 158.507,192.998 166.423,192.473 175.257 C 191.364 193.920,166.639 200.513,156.158 184.939 C 144.884 168.186,162.756 146.937,181.171 155.202 M152.680 208.213 C 167.803 215.432,167.800 237.412,152.675 244.668 C 137.574 251.912,120.245 237.425,124.828 221.387 C 128.363 209.016,141.423 202.838,152.680 208.213 M193.143 226.000 C 193.143 246.933,193.329 246.194,188.899 242.842 C 179.761 235.928,178.161 221.788,185.542 213.165 C 187.627 210.729,191.721 207.429,192.657 207.429 C 192.924 207.429,193.143 215.786,193.143 226.000 M179.184 259.808 C 197.815 266.099,196.968 293.082,177.966 298.606 C 165.495 302.231,152.381 292.270,152.381 279.171 C 152.381 265.583,166.366 255.480,179.184 259.808 " stroke="none" fill="#ffb5dc" fill-rule="evenodd"></path></g></svg><style>@media (prefers-color-scheme: light) { :root { filter: none; } }
@media (prefers-color-scheme: dark) { :root { filter: none; } }
</style></svg>

<svg xmlns="http://www.w3.org/2000/svg" version="1.1" xmlns:xlink="http://www.w3.org/1999/xlink" width="1000" height="1000"><style>
    #light-icon {
      display: inline;
    }
    #dark-icon {
      display: none;
    }

    @media (prefers-color-scheme: dark) {
      #light-icon {
        display: none;
      }
      #dark-icon {
        display: inline;
      }
    }
  </style><g id="light-icon"><svg xmlns="http://www.w3.org/2000/svg" version="1.1" xmlns:xlink="http://www.w3.org/1999/xlink" width="1000" height="1000"><g><g transform="matrix(2.5,0,0,2.5,0,0)"><svg xmlns="http://www.w3.org/2000/svg" version="1.1" xmlns:xlink="http://www.w3.org/1999/xlink" width="400" height="400"><svg xmlns="http://www.w3.org/2000/svg" viewBox="0 0 400 400" stroke="#f9f124">
    <path d="M240.17 23.46c-25.89 3.37-48.88 29.74-51.52 59.1l-.36 3.98-4.23 2.32a49.02 49.02 0 0 0-7.78 5.57l-3.56 3.23-2.7-2.58c-26.77-25.66-70.81.45-60.83 36.06.61 2.2 1.18 4.36 1.25 4.79.09.51-1.1 1.13-3.5 1.79-35.52 9.85-37.5 58.65-2.86 70.86 2.63.93 5.23 1.69 5.78 1.7 1.27 0 1.26.27-.26 4.34-1.9 5.1-1.87 18.34.06 23.67 4.29 11.9 12.47 19.7 24.91 23.75 4.56 1.48 4.47 1.23 2.55 7.39-1.65 5.26-1.8 14.43-.32 19.43 8.15 27.54 40.78 36.08 61.83 16.18l3.07-2.9 3.62 3.36c18.51 17.15 47.33 12.87 59.17-8.8l2.08-3.8 3.72-.74c25.04-5.03 41.48-29.15 36.32-53.3l-.8-3.72 2.17-2c17.1-15.78 17.9-48.38 1.59-64.45l-3.65-3.6.74-3.54c5.19-24.76-15.38-53.36-38.5-53.54-.93 0-1.62-.69-2.51-2.44-10.74-21.16-40.06-27.66-57.45-12.75-3.08 2.64-3.06 2.65-3.05-1.53.01-22.9 15.13-45.96 32.45-49.52 9.9-2.04 19.32.32 37.3 9.37 86.6 43.57 118.86 152.03 69.55 233.79l-2.8 4.64-2.72-2.93c-1.5-1.6-4.95-5.55-7.69-8.75-6.14-7.2-5.8-7.02-6.58-3.44-1.53 7.02-10.95 60-10.95 61.63 0 .77 1.54.44 9.29-2.06l17.86-5.71C368.06 319.65 376 317 376 316.56c0-.27-2.58-2.24-5.73-4.38-9.82-6.67-14.27-9.95-14.27-10.51 0-.3 1.97-3.94 4.38-8.08 40-68.81 30.86-157.55-22.27-216.33-18.16-20.09-38.33-34.88-62.25-45.64-16.96-7.64-25.21-9.52-35.69-8.16M100.86 51.25 70 58.05c-16.34 3.61-30.06 6.68-30.48 6.83-.46.16 2.82 3.23 8 7.48 4.82 3.97 9.23 7.66 9.8 8.2 1.17 1.1 1.98-.25-7.98 13.5C7.83 151.38 4.2 232.65 40.46 293.43c23.17 38.86 66.04 72.96 104.8 83.39 12.62 3.39 16.73 4.41 20.74 5.15 14.6 2.71 35.26 4.03 38.3 2.45 6.3-3.27 6.66-11.64.68-16.06-1.41-1.05-2.74-1.22-12.28-1.57-103.56-3.8-179.47-104.12-154.98-204.8A166.66 166.66 0 0 1 66.39 101c5.25-7.03 5.4-7.1 8.31-3.42 1.19 1.5 4.21 5.13 6.73 8.08l5.8 6.84 1.23 1.48.56-2.28c.8-3.25 4.44-18.5 5.86-24.56.67-2.83 2.86-11.8 4.88-19.95 4.45-17.98 4.36-16.68 1.1-15.94M200 101.13c0 .31-.77 1.82-1.7 3.34-3.88 6.3-4.75 10.73-4.64 23.68.1 12.3.03 12.5-4.14 9.63-11.66-8.02-11.44-25.31.43-33.48 3.68-2.54 10.05-4.55 10.05-3.17m37.02.26c19.55 5.2 21.36 32.72 2.7 41.1-9.04 4.05-7.8 15.39 1.69 15.48 10.97.1 25.14-15 27.22-29.04.77-5.18 1.01-5.27 6.67-2.57 13.25 6.32 19.39 22.23 14.1 36.5-2.7 7.23-2.42 8.84 2.03 12.15 14.6 10.88 18.4 27.85 9.4 41.93-2.47 3.87-2.98 3.84-8.26-.41-13-10.48-27.82-12.4-30.36-3.94-1.6 5.35 1.34 8.81 9.12 10.76 24.24 6.06 27.3 39.09 4.64 50.17-5.89 2.88-6.7 2.92-7.1.34-2.52-16.45-12.43-28.54-26.17-31.93-12.17-3-15.2 10.44-3.55 15.79 9.78 4.5 13.72 10.33 13.7 20.28-.06 23.51-30.61 30.14-41.01 8.9l-1.84-3.76-.16-36.8c-.14-32.7-.06-37.12.77-39.6 5.42-16.31 20.86-20.82 35.94-10.49 10.32 7.07 19.3-4.43 9.83-12.58-12.08-10.4-30.36-12.03-43.37-3.86-1.17.73-2.4 1.33-2.73 1.33-.43 0-.56-9.8-.44-32.14l.16-32.14 1.56-3.19c4.72-9.58 15.7-14.88 25.46-12.28m-84.4 1.33c17.43 8.59 14.06 34.96-4.9 38.37-21.52 3.87-32.68-25.67-14.07-37.22 5.04-3.13 13.85-3.67 18.97-1.15m-28.97 52.1c12.87 5.92 16.14 23.16 6.25 32.98-11.96 11.88-32.51 4.59-34.26-12.16-1.57-15.1 14.48-27.05 28-20.82m57.53.38c7.37 3.3 11.83 11.22 11.3 20.06-1.1 18.66-25.83 25.25-36.31 9.68-11.28-16.75 6.6-38 25.01-29.74m-28.49 53.01c15.12 7.22 15.12 29.2 0 36.46-15.1 7.24-32.44-7.24-27.85-23.28 3.53-12.37 16.6-18.55 27.85-13.18M193.14 226c0 20.93.19 20.2-4.24 16.84-9.14-6.91-10.74-21.05-3.36-29.68 2.09-2.43 6.18-5.73 7.12-5.73.26 0 .48 8.36.48 18.57m-13.96 33.8c18.63 6.3 17.79 33.28-1.21 38.8-12.47 3.63-25.59-6.33-25.59-19.43 0-13.59 13.99-23.69 26.8-19.36" fill-rule="evenodd"></path>
</svg></svg></g></g></svg></g><g id="dark-icon"><svg xmlns="http://www.w3.org/2000/svg" version="1.1" xmlns:xlink="http://www.w3.org/1999/xlink" width="1000" height="1000"><g><g transform="matrix(2.5,0,0,2.5,0,0)"><svg xmlns="http://www.w3.org/2000/svg" version="1.1" xmlns:xlink="http://www.w3.org/1999/xlink" width="400" height="400"><svg xmlns="http://www.w3.org/2000/svg" viewBox="0 0 400 400" fill="#fad25a">
    <path d="M240.17 23.46c-25.89 3.37-48.88 29.74-51.52 59.1l-.36 3.98-4.23 2.32a49.02 49.02 0 0 0-7.78 5.57l-3.56 3.23-2.7-2.58c-26.77-25.66-70.81.45-60.83 36.06.61 2.2 1.18 4.36 1.25 4.79.09.51-1.1 1.13-3.5 1.79-35.52 9.85-37.5 58.65-2.86 70.86 2.63.93 5.23 1.69 5.78 1.7 1.27 0 1.26.27-.26 4.34-1.9 5.1-1.87 18.34.06 23.67 4.29 11.9 12.47 19.7 24.91 23.75 4.56 1.48 4.47 1.23 2.55 7.39-1.65 5.26-1.8 14.43-.32 19.43 8.15 27.54 40.78 36.08 61.83 16.18l3.07-2.9 3.62 3.36c18.51 17.15 47.33 12.87 59.17-8.8l2.08-3.8 3.72-.74c25.04-5.03 41.48-29.15 36.32-53.3l-.8-3.72 2.17-2c17.1-15.78 17.9-48.38 1.59-64.45l-3.65-3.6.74-3.54c5.19-24.76-15.38-53.36-38.5-53.54-.93 0-1.62-.69-2.51-2.44-10.74-21.16-40.06-27.66-57.45-12.75-3.08 2.64-3.06 2.65-3.05-1.53.01-22.9 15.13-45.96 32.45-49.52 9.9-2.04 19.32.32 37.3 9.37 86.6 43.57 118.86 152.03 69.55 233.79l-2.8 4.64-2.72-2.93c-1.5-1.6-4.95-5.55-7.69-8.75-6.14-7.2-5.8-7.02-6.58-3.44-1.53 7.02-10.95 60-10.95 61.63 0 .77 1.54.44 9.29-2.06l17.86-5.71C368.06 319.65 376 317 376 316.56c0-.27-2.58-2.24-5.73-4.38-9.82-6.67-14.27-9.95-14.27-10.51 0-.3 1.97-3.94 4.38-8.08 40-68.81 30.86-157.55-22.27-216.33-18.16-20.09-38.33-34.88-62.25-45.64-16.96-7.64-25.21-9.52-35.69-8.16M100.86 51.25 70 58.05c-16.34 3.61-30.06 6.68-30.48 6.83-.46.16 2.82 3.23 8 7.48 4.82 3.97 9.23 7.66 9.8 8.2 1.17 1.1 1.98-.25-7.98 13.5C7.83 151.38 4.2 232.65 40.46 293.43c23.17 38.86 66.04 72.96 104.8 83.39 12.62 3.39 16.73 4.41 20.74 5.15 14.6 2.71 35.26 4.03 38.3 2.45 6.3-3.27 6.66-11.64.68-16.06-1.41-1.05-2.74-1.22-12.28-1.57-103.56-3.8-179.47-104.12-154.98-204.8A166.66 166.66 0 0 1 66.39 101c5.25-7.03 5.4-7.1 8.31-3.42 1.19 1.5 4.21 5.13 6.73 8.08l5.8 6.84 1.23 1.48.56-2.28c.8-3.25 4.44-18.5 5.86-24.56.67-2.83 2.86-11.8 4.88-19.95 4.45-17.98 4.36-16.68 1.1-15.94M200 101.13c0 .31-.77 1.82-1.7 3.34-3.88 6.3-4.75 10.73-4.64 23.68.1 12.3.03 12.5-4.14 9.63-11.66-8.02-11.44-25.31.43-33.48 3.68-2.54 10.05-4.55 10.05-3.17m37.02.26c19.55 5.2 21.36 32.72 2.7 41.1-9.04 4.05-7.8 15.39 1.69 15.48 10.97.1 25.14-15 27.22-29.04.77-5.18 1.01-5.27 6.67-2.57 13.25 6.32 19.39 22.23 14.1 36.5-2.7 7.23-2.42 8.84 2.03 12.15 14.6 10.88 18.4 27.85 9.4 41.93-2.47 3.87-2.98 3.84-8.26-.41-13-10.48-27.82-12.4-30.36-3.94-1.6 5.35 1.34 8.81 9.12 10.76 24.24 6.06 27.3 39.09 4.64 50.17-5.89 2.88-6.7 2.92-7.1.34-2.52-16.45-12.43-28.54-26.17-31.93-12.17-3-15.2 10.44-3.55 15.79 9.78 4.5 13.72 10.33 13.7 20.28-.06 23.51-30.61 30.14-41.01 8.9l-1.84-3.76-.16-36.8c-.14-32.7-.06-37.12.77-39.6 5.42-16.31 20.86-20.82 35.94-10.49 10.32 7.07 19.3-4.43 9.83-12.58-12.08-10.4-30.36-12.03-43.37-3.86-1.17.73-2.4 1.33-2.73 1.33-.43 0-.56-9.8-.44-32.14l.16-32.14 1.56-3.19c4.72-9.58 15.7-14.88 25.46-12.28m-84.4 1.33c17.43 8.59 14.06 34.96-4.9 38.37-21.52 3.87-32.68-25.67-14.07-37.22 5.04-3.13 13.85-3.67 18.97-1.15m-28.97 52.1c12.87 5.92 16.14 23.16 6.25 32.98-11.96 11.88-32.51 4.59-34.26-12.16-1.57-15.1 14.48-27.05 28-20.82m57.53.38c7.37 3.3 11.83 11.22 11.3 20.06-1.1 18.66-25.83 25.25-36.31 9.68-11.28-16.75 6.6-38 25.01-29.74m-28.49 53.01c15.12 7.22 15.12 29.2 0 36.46-15.1 7.24-32.44-7.24-27.85-23.28 3.53-12.37 16.6-18.55 27.85-13.18M193.14 226c0 20.93.19 20.2-4.24 16.84-9.14-6.91-10.74-21.05-3.36-29.68 2.09-2.43 6.18-5.73 7.12-5.73.26 0 .48 8.36.48 18.57m-13.96 33.8c18.63 6.3 17.79 33.28-1.21 38.8-12.47 3.63-25.59-6.33-25.59-19.43 0-13.59 13.99-23.69 26.8-19.36" fill-rule="evenodd"></path>
</svg></svg></g></g></svg></g></svg>
